!!!COM: Mozart, Wolfgang Amadeus
!!!OTL: Musikalische Würfelspiele, Kontre-Tänze
!!!SCA: K<sup>6</sup> Anh. C30.01 (K<sup>3</sup> Anh. 294d)
**kern	**kern
*staff2	*staff2
*clefF4	*clefG2
*M2/4	*M2/4
*MM110	*MM110
*>[A,A1,A,A2,B]	*>[A,A1,A,A2,B]
*>norep[A,A2,B]	*>norep[A,A2,B]
*>A	*>A
=7	=7
4C	8cc
.	8cc
4C	8ee
.	8ee
=1	=1
4C	8gg
.	8gg
4r	8ee
.	8cc
=164	=164
16GG	8b
16AA	.
16BB	8b
16C	.
16D	8g
16E	.
16F	8g
16D	.
=12	=12
4C	16cc
.	16b
.	16cc
.	16dd
4r	8cc
.	8cc
=120	=120
4D	16dd
.	16ee
.	16ff#
.	16gg
4F#	16aa
.	16bb
.	16ccc
.	16aa
=156	=156
4G	8gg
.	4bb
4r	.
.	16gg
.	16dd
=137	=137
4C	8ee
.	8ccc
4D	16bb
.	16aa
.	16gg
.	16ff#
=172	=172
*>A1	*>A1
4GG	4g 4b 4gg
16G	4r
16F	.
16E	.
16D	.
=172:|!	=172:|!
*>A2	*>A2
4GG	4g 4b 4gg
16GG	4r
16AA	.
16BB	.
16C#	.
=136||	=136||
*>B	*>B
4D	8dd
.	16ff#
.	16aa
4F#	8ddd
.	8ddd
=34	=34
8G	16gg
.	16bb
8r	16gg
.	16dd
8GG	16b
.	16gg
8r	16dd
.	16b
=175	=175
4C	8ccc
.	8gg
4C	8ee
.	8cc
=9	=9
4GG	8dd
.	8b
16G	4g
16F	.
16E	.
16D	.
=151	=151
16C	4cc
16E	.
16G	.
16E	.
4C	8ee
.	8gg
=80	=80
4C	8cc
.	8ee
4r	8ee
.	8ee
=159	=159
4G	8dd
.	4ff
4GG	.
.	16dd
.	16b
=146	=146
4C	4cc
4CC	4c
==	==
*-	*-
